icons/expo_light.svg

<?xml version="1.0" encoding="UTF-8"?>
<svg width="16" height="16" fill="none" version="1.1" viewBox="0 0 16 16" xmlns="http://www.w3.org/2000/svg">
 <path d="m9.6963 2.6724c-0.5155-0.78764-0.63757-0.8926-1.6872-0.8926h-0.02488c-1.0497 0-1.1655 0.10496-1.6872 0.8926-0.4844 0.7402-5.295 9.583-5.295 9.8295 0.00783 0.4281 0.15679 0.8416 0.42376 1.1764 0.33744 0.4867 0.91981 0.7573 1.3436 0.3266 0.28768-0.2901 3.3745-5.6293 4.865-7.6486 0.04127-0.05856 0.09601-0.10635 0.15961-0.13933 0.06359-0.03298 0.13419-0.0502 0.20583-0.0502s0.14223 0.01722 0.20583 0.0502 0.11833 0.08077 0.15961 0.13933c1.4897 2.0192 4.5774 7.3585 4.865 7.6486 0.4238 0.4307 1.0062 0.1586 1.3436-0.3266 0.267-0.3348 0.4159-0.7483 0.4238-1.1764-0.0063-0.2465-4.8168-9.0963-5.3012-9.8295z" fill="#455a64"/>
</svg>

<svg width="16" height="16" viewBox="0 0 16 16" fill="none" xmlns="http://www.w3.org/2000/svg">
<path d="M9.69627 2.67239C9.18077 1.88475 9.0587 1.77979 8.00904 1.77979H7.98416C6.93449 1.77979 6.81864 1.88475 6.29692 2.67239C5.81252 3.41259 1.00195 12.2554 1.00195 12.5019C1.00978 12.93 1.15874 13.3435 1.42571 13.6783C1.76315 14.165 2.34552 14.4356 2.76928 14.0049C3.05696 13.7148 6.14375 8.37556 7.63427 6.35632C7.67554 6.29776 7.73028 6.24997 7.79388 6.21699C7.85747 6.18401 7.92807 6.16679 7.99971 6.16679C8.07135 6.16679 8.14194 6.18401 8.20554 6.21699C8.26914 6.24997 8.32387 6.29776 8.36515 6.35632C9.85489 8.37556 12.9425 13.7148 13.2301 14.0049C13.6539 14.4356 14.2363 14.1635 14.5737 13.6783C14.8407 13.3435 14.9896 12.93 14.9975 12.5019C14.9912 12.2554 10.1807 3.4056 9.69627 2.67239Z" fill="#212121"/>
</svg>
